!!!OTL: 708. Schmerzliche Trennung auf immer.
!!!ODT: 1846
!!!ARE: Europa, Mitteleuropa, Deutschland, Stettin
!!!SCT: E0708
!!!TXL: @@DE
!!!YEM: Copyright 1995, estate of Helmut Schaffrath.
**kern	**text
*ICvox	*
*M2/4	*
*k[b-]	*
*F:	*
!LO:TX:a:t=Sehr gemessen.	!
!LO:TX:a:t=Mel. 1846 von einem Stettiner Geſellen.	!
{4c	Einſt
=1	=1
4f	ging
8f	ich
8a	am
=2	=2
4cc	U-
8a	-ſer
8f	der
=3	=3
8.aL	Do-
16gJ	.
8g	-nau
8g	um-
=4	=4
4g	-her,
8r}	.
{8g	ʒu
=5	=5
4g	ſchau-
8a	-en
8b-	ob
=6	=6
4dd	nie-
8cc	-mals
8b-	mein
=7	=7
4a	Hein-
8f	-rich
8f	da
=8	=8
4f	wär.
8r}	.
{8c	Er
=9	=9
4f	iſt
8a	ja
8cc	ver-
=10	=10
4ff	-ſchwunden,
8ee	.
8dd	er
=11	=11
8ddL	iſt
8ccJ	ja
8a	nicht
8cc	mehr
=12	=12
(8ffL	da!
8cc	.
8aJ)}	.
{8a	es
=13	=13
8aL	däm-
8gJ	.
8g	-mert
8b-	der
=14	=14
4dd	A-
8cc	-bend
8e	ſchon
=15	=15
8gL	wied-
8fJ	.
8f	-rum
8f	ſo
=16	=16
4f}	nah.
==	==
!!!AGN: Liebes - Lied, Leid, Klage
!!!ONB: ESAC (Essen Associative Code) Database: ERK2
!!!AMT: simple duple
!!!AIN: vox
!!!EED: Helmut Schaffrath
!!!EEV: 1.0
!!!GTL: Liebeslieder [Neuere (aus dem 18. bis 19. Jahrh.) - Liebesleid] 678-740
!!!URL-scan: https://rosdok.uni-rostock.de/mcrviewer/recordIdentifier/rosdok_ppn745177662/iview2/phys_0514.iview2?x=129.88308448332373&y=302.14972376218066&scale=0.7029437510502773&rotation=0&layout=singlePageLayout
!!!ENC: Anna Maria Matuszewska
!!!EEV: 2024/12/16
*-	*-
